Numix-Light/16/status/indicator-keyboard-Sr-7.svg

<?xml version="1.0" encoding="UTF-8" standalone="no"?>
<svg
   xmlns:dc="http://purl.org/dc/elements/1.1/"
   xmlns:cc="http://creativecommons.org/ns#"
   xmlns:rdf="http://www.w3.org/1999/02/22-rdf-syntax-ns#"
   xmlns:svg="http://www.w3.org/2000/svg"
   xmlns="http://www.w3.org/2000/svg"
   xmlns:sodipodi="http://sodipodi.sourceforge.net/DTD/sodipodi-0.dtd"
   xmlns:inkscape="http://www.inkscape.org/namespaces/inkscape"
   viewBox="0 0 16 16"
   id="svg2"
   version="1.1"
   inkscape:version="0.91 r13725"
   sodipodi:docname="indicator-keyboard-Sr-7.svg">
  <metadata
     id="metadata14">
    <rdf:RDF>
      <cc:Work
         rdf:about="">
        <dc:format>image/svg+xml</dc:format>
        <dc:type
           rdf:resource="http://purl.org/dc/dcmitype/StillImage" />
      </cc:Work>
    </rdf:RDF>
  </metadata>
  <defs
     id="defs12" />
  <sodipodi:namedview
     pagecolor="#ffffff"
     bordercolor="#666666"
     borderopacity="1"
     objecttolerance="10"
     gridtolerance="10"
     guidetolerance="10"
     inkscape:pageopacity="0"
     inkscape:pageshadow="2"
     inkscape:window-width="459"
     inkscape:window-height="369"
     id="namedview10"
     showgrid="false"
     inkscape:zoom="14.75"
     inkscape:cx="8"
     inkscape:cy="8"
     inkscape:window-x="65"
     inkscape:window-y="24"
     inkscape:window-maximized="0"
     inkscape:current-layer="svg2" />
  <path
     style="fill:#353535;fill-opacity:1"
     d="M 1.5996094 0 C 0.71320937 2.9605947e-16 0 0.71320937 0 1.5996094 L 0 14.400391 C 2.9605947e-16 15.286791 0.71320937 16 1.5996094 16 L 14.400391 16 C 15.286791 16 16 15.286791 16 14.400391 L 16 1.5996094 C 16 0.71320937 15.286791 0 14.400391 0 L 1.5996094 0 z M 4.890625 4.7246094 C 5.058625 4.7246094 5.2227656 4.7357656 5.3847656 4.7597656 C 5.5467656 4.7837656 5.6959844 4.817375 5.8339844 4.859375 C 5.9779844 4.895375 6.1086563 4.936375 6.2226562 4.984375 C 6.3426562 5.032375 6.4415313 5.0846719 6.5195312 5.1386719 L 6.3027344 5.6503906 C 6.1287344 5.5303906 5.9160625 5.4352813 5.6640625 5.3632812 C 5.4180625 5.2912813 5.1512812 5.2558594 4.8632812 5.2558594 C 4.6652812 5.2558594 4.4824531 5.2763594 4.3144531 5.3183594 C 4.1524531 5.3543594 4.010625 5.4178125 3.890625 5.5078125 C 3.770625 5.5918125 3.6755156 5.6980781 3.6035156 5.8300781 C 3.5375156 5.9620781 3.5039062 6.1225938 3.5039062 6.3085938 C 3.5039062 6.5005938 3.5393281 6.6629219 3.6113281 6.7949219 C 3.6833281 6.9269219 3.7822031 7.0407187 3.9082031 7.1367188 C 4.0402031 7.2327187 4.1931875 7.3184844 4.3671875 7.3964844 C 4.5411875 7.4744844 4.7315469 7.556625 4.9355469 7.640625 C 5.1815469 7.742625 5.4129062 7.8433125 5.6289062 7.9453125 C 5.8509063 8.0473125 6.041125 8.1686406 6.203125 8.3066406 C 6.365125 8.4446406 6.4957969 8.6125469 6.5917969 8.8105469 C 6.6877969 9.0085469 6.734375 9.2510625 6.734375 9.5390625 C 6.734375 10.103063 6.536625 10.526594 6.140625 10.808594 C 5.750625 11.090594 5.2208281 11.230469 4.5488281 11.230469 C 4.3088281 11.230469 4.088625 11.215547 3.890625 11.185547 C 3.692625 11.155547 3.515375 11.120125 3.359375 11.078125 C 3.203375 11.030125 3.0728438 10.981594 2.9648438 10.933594 C 2.8568438 10.885594 2.7728906 10.844594 2.7128906 10.808594 L 2.9101562 10.277344 C 2.9701563 10.313344 3.0503437 10.354344 3.1523438 10.402344 C 3.2543437 10.450344 3.3756719 10.498875 3.5136719 10.546875 C 3.6516719 10.588875 3.8064688 10.624297 3.9804688 10.654297 C 4.1544687 10.684297 4.3466406 10.699219 4.5566406 10.699219 C 5.0426406 10.699219 5.4214062 10.613453 5.6914062 10.439453 C 5.9614063 10.259453 6.0957031 9.970219 6.0957031 9.5742188 C 6.0957031 9.3462187 6.0509375 9.1578125 5.9609375 9.0078125 C 5.8769375 8.8518125 5.7631406 8.7230938 5.6191406 8.6210938 C 5.4751406 8.5130937 5.3090469 8.4235625 5.1230469 8.3515625 C 4.9370469 8.2735625 4.7430625 8.1914219 4.5390625 8.1074219 C 4.2810625 8.0054219 4.0497031 7.9009687 3.8457031 7.7929688 C 3.6417031 7.6849688 3.4682187 7.5655937 3.3242188 7.4335938 C 3.1802187 7.2955937 3.0682344 7.1388438 2.9902344 6.9648438 C 2.9182344 6.7908437 2.8828125 6.5875156 2.8828125 6.3535156 C 2.8828125 5.8195156 3.0600625 5.4146719 3.4140625 5.1386719 C 3.7680625 4.8626719 4.260625 4.7246094 4.890625 4.7246094 z M 9.421875 6.3535156 C 9.613875 6.3535156 9.7948906 6.3684375 9.9628906 6.3984375 C 10.136891 6.4284375 10.256266 6.4582812 10.322266 6.4882812 L 10.205078 6.9921875 C 10.157078 6.9681875 10.058203 6.9439219 9.9082031 6.9199219 C 9.7642031 6.8899219 9.5720313 6.875 9.3320312 6.875 C 9.0800312 6.875 8.8767031 6.8936875 8.7207031 6.9296875 C 8.5707031 6.9656875 8.4718281 6.9955312 8.4238281 7.0195312 L 8.4238281 11.095703 L 7.8378906 11.095703 L 7.8378906 6.6582031 C 7.9878906 6.5922031 8.1949844 6.5269375 8.4589844 6.4609375 C 8.7229844 6.3889375 9.043875 6.3535156 9.421875 6.3535156 z M 10.826172 8.8417969 L 13.287109 8.8417969 L 13.287109 9.1816406 C 13.154509 9.3415406 13.009509 9.5551188 12.849609 9.8242188 C 12.693609 10.089419 12.544697 10.391163 12.404297 10.726562 C 12.263897 11.058063 12.142409 11.410756 12.037109 11.785156 C 11.935709 12.159556 11.873009 12.529884 11.849609 12.896484 L 11.445312 12.896484 C 11.468713 12.572784 11.527494 12.229888 11.621094 11.867188 C 11.718594 11.504488 11.836156 11.1518 11.972656 10.8125 C 12.113056 10.4732 12.261975 10.161653 12.421875 9.8769531 C 12.585675 9.5922532 12.744385 9.3649594 12.896484 9.1933594 L 10.826172 9.1933594 L 10.826172 8.8417969 z "
     id="path4" />
</svg>

<svg xmlns="http://www.w3.org/2000/svg" viewBox="0 0 16 16">
 <path d="m 1.6 0 c -0.886 0 -1.6 0.713 -1.6 1.6 l 0 12.801 c 0 0.886 0.713 1.6 1.6 1.6 l 12.801 0 c 0.886 0 1.6 -0.713 1.6 -1.6 l 0 -12.801 c 0 -0.886 -0.713 -1.6 -1.6 -1.6 l -12.801 0 z m 3.291 4.725 c 0.168 0 0.332 0.011 0.494 0.035 c 0.162 0.024 0.311 0.058 0.449 0.1 c 0.144 0.036 0.275 0.077 0.389 0.125 c 0.12 0.048 0.219 0.1 0.297 0.154 l -0.217 0.512 c -0.174 -0.12 -0.387 -0.215 -0.639 -0.287 c -0.246 -0.072 -0.513 -0.107 -0.801 -0.107 c -0.198 0 -0.381 0.02 -0.549 0.063 c -0.162 0.036 -0.304 0.099 -0.424 0.189 c -0.12 0.084 -0.215 0.19 -0.287 0.322 c -0.066 0.132 -0.1 0.293 -0.1 0.479 c 0 0.192 0.035 0.354 0.107 0.486 c 0.072 0.132 0.171 0.246 0.297 0.342 c 0.132 0.096 0.285 0.182 0.459 0.26 c 0.174 0.078 0.364 0.16 0.568 0.244 c 0.246 0.102 0.477 0.203 0.693 0.305 c 0.222 0.102 0.412 0.223 0.574 0.361 c 0.162 0.138 0.293 0.306 0.389 0.504 c 0.096 0.198 0.143 0.441 0.143 0.729 c 0 0.564 -0.198 0.988 -0.594 1.27 c -0.39 0.282 -0.92 0.422 -1.592 0.422 c -0.24 0 -0.46 -0.015 -0.658 -0.045 c -0.198 -0.03 -0.375 -0.065 -0.531 -0.107 c -0.156 -0.048 -0.287 -0.097 -0.395 -0.145 c -0.108 -0.048 -0.192 -0.089 -0.252 -0.125 l 0.197 -0.531 c 0.06 0.036 0.14 0.077 0.242 0.125 c 0.102 0.048 0.223 0.097 0.361 0.145 c 0.138 0.042 0.293 0.077 0.467 0.107 c 0.174 0.03 0.366 0.045 0.576 0.045 c 0.486 0 0.865 -0.086 1.135 -0.26 c 0.27 -0.18 0.404 -0.469 0.404 -0.865 c 0 -0.228 -0.045 -0.416 -0.135 -0.566 c -0.084 -0.156 -0.198 -0.285 -0.342 -0.387 c -0.144 -0.108 -0.31 -0.198 -0.496 -0.27 c -0.186 -0.078 -0.38 -0.16 -0.584 -0.244 c -0.258 -0.102 -0.489 -0.206 -0.693 -0.314 c -0.204 -0.108 -0.377 -0.227 -0.521 -0.359 c -0.144 -0.138 -0.256 -0.295 -0.334 -0.469 c -0.072 -0.174 -0.107 -0.377 -0.107 -0.611 c 0 -0.534 0.177 -0.939 0.531 -1.215 c 0.354 -0.276 0.847 -0.414 1.477 -0.414 z m 4.531 1.629 c 0.192 0 0.373 0.015 0.541 0.045 c 0.174 0.03 0.293 0.06 0.359 0.09 l -0.117 0.504 c -0.048 -0.024 -0.147 -0.048 -0.297 -0.072 c -0.144 -0.03 -0.336 -0.045 -0.576 -0.045 c -0.252 0 -0.455 0.019 -0.611 0.055 c -0.15 0.036 -0.249 0.066 -0.297 0.09 l 0 4.076 l -0.586 0 l 0 -4.437 c 0.15 -0.066 0.357 -0.131 0.621 -0.197 c 0.264 -0.072 0.585 -0.107 0.963 -0.107 z m 1.404 2.488 l 2.461 0 l 0 0.34 c -0.133 0.16 -0.278 0.373 -0.438 0.643 c -0.156 0.265 -0.305 0.567 -0.445 0.902 c -0.14 0.332 -0.262 0.684 -0.367 1.059 c -0.101 0.374 -0.164 0.745 -0.188 1.111 l -0.404 0 c 0.023 -0.324 0.082 -0.667 0.176 -1.029 c 0.098 -0.363 0.215 -0.715 0.352 -1.055 c 0.14 -0.339 0.289 -0.651 0.449 -0.936 c 0.164 -0.285 0.323 -0.512 0.475 -0.684 l -2.07 0 l 0 -0.352 z" style="fill:#353535;fill-opacity:1"/>
</svg>
